src/assets/img/dots.svg

<svg width="401" height="129" viewBox="0 0 401 129" fill="none" xmlns="http://www.w3.org/2000/svg">
<path d="M40.7953 60.8903C39.8456 60.8904 39.0199 61.2207 38.3592 61.9226C37.6986 62.5832 37.327 63.409 37.327 64.3586C37.327 65.3083 37.6573 66.134 38.3592 66.7947C39.0199 67.4553 39.8456 67.8269 40.7953 67.8269C41.7449 67.8269 42.5707 67.4966 43.2314 66.7947C43.892 66.134 44.2636 65.3082 44.2636 64.3586C44.2636 63.409 43.9333 62.5832 43.2314 61.9226C42.5707 61.2619 41.7449 60.8903 40.7953 60.8903Z" fill="#FF8BFF"/>
<path d="M40.7953 91.1976C39.8456 91.1976 39.0199 91.5279 38.3592 92.2298C37.6986 92.8905 37.327 93.7162 37.327 94.6659C37.327 95.6155 37.6573 96.4413 38.3592 97.1019C39.0199 97.7625 39.8456 98.1341 40.7953 98.1341C41.7449 98.1341 42.5707 97.8038 43.2314 97.1019C43.892 96.4413 44.2636 95.6155 44.2636 94.6659C44.2636 93.7162 43.9333 92.8905 43.2314 92.2298C42.5707 91.5692 41.7449 91.1976 40.7953 91.1976Z" fill="#FF8BFF"/>
<path d="M40.7953 121.542C39.8456 121.542 39.0199 121.872 38.3592 122.574C37.6986 123.234 37.327 124.06 37.327 125.01C37.327 125.959 37.6573 126.785 38.3592 127.446C39.0199 128.106 39.8456 128.478 40.7953 128.478C41.7449 128.478 42.5707 128.148 43.2314 127.446C43.892 126.785 44.2636 125.959 44.2636 125.01C44.2636 124.06 43.9333 123.234 43.2314 122.574C42.5707 121.913 41.7449 121.542 40.7953 121.542Z" fill="#FF8BFF"/>
<path d="M3.46824 121.542C2.5186 121.542 1.69284 121.872 1.03222 122.574C0.371599 123.234 3.30277e-07 124.06 4.54807e-07 125.01C5.79338e-07 125.959 0.330311 126.785 1.03222 127.446C1.69284 128.107 2.5186 128.478 3.46824 128.478C4.41789 128.478 5.24371 128.148 5.90433 127.446C6.56495 126.785 6.93655 125.959 6.93655 125.01C6.93655 124.06 6.60624 123.234 5.90433 122.574C5.24371 121.913 4.41788 121.542 3.46824 121.542Z" fill="#FF8BFF"/>
<path d="M100.251 0.2359C99.3011 0.235901 98.4753 0.566211 97.8147 1.26812C97.1541 1.92874 96.7825 2.75452 96.7825 3.70416C96.7825 4.6538 97.1128 5.47958 97.8147 6.1402C98.4753 6.80082 99.3011 7.17242 100.251 7.17242C101.2 7.17242 102.026 6.84211 102.687 6.1402C103.347 5.47958 103.719 4.6538 103.719 3.70416C103.719 2.75452 103.389 1.92874 102.687 1.26812C102.026 0.607499 101.2 0.2359 100.251 0.2359Z" fill="#FF8BFF"/>
<path d="M100.251 30.5397C99.3011 30.5397 98.4753 30.87 97.8147 31.5719C97.1541 32.2325 96.7825 33.0583 96.7825 34.0079C96.7825 34.9576 97.1128 35.7834 97.8147 36.444C98.4753 37.1046 99.3011 37.4762 100.251 37.4762C101.2 37.4762 102.026 37.1459 102.687 36.444C103.347 35.7833 103.719 34.9576 103.719 34.0079C103.719 33.0583 103.389 32.2325 102.687 31.5719C102.026 30.9113 101.2 30.5397 100.251 30.5397Z" fill="#FF8BFF"/>
<path d="M100.251 60.8903C99.3011 60.8904 98.4753 61.2207 97.8147 61.9226C97.1541 62.5832 96.7825 63.409 96.7825 64.3586C96.7825 65.3083 97.1128 66.134 97.8147 66.7947C98.4753 67.4553 99.3011 67.8269 100.251 67.8269C101.2 67.8269 102.026 67.4966 102.687 66.7947C103.347 66.134 103.719 65.3082 103.719 64.3586C103.719 63.409 103.389 62.5832 102.687 61.9226C102.026 61.2619 101.2 60.8903 100.251 60.8903Z" fill="#FF8BFF"/>
<path d="M100.251 91.1976C99.3011 91.1976 98.4753 91.5279 97.8147 92.2298C97.1541 92.8904 96.7825 93.7162 96.7825 94.6659C96.7825 95.6155 97.1128 96.4413 97.8147 97.1019C98.4753 97.7625 99.3011 98.1341 100.251 98.1341C101.2 98.1341 102.026 97.8038 102.687 97.1019C103.347 96.4413 103.719 95.6155 103.719 94.6659C103.719 93.7162 103.389 92.8904 102.687 92.2298C102.026 91.5692 101.2 91.1976 100.251 91.1976Z" fill="#FF8BFF"/>
<path d="M100.251 121.541C99.3011 121.541 98.4753 121.872 97.8147 122.574C97.1541 123.234 96.7825 124.06 96.7825 125.01C96.7825 125.959 97.1128 126.785 97.8147 127.446C98.4753 128.106 99.3011 128.478 100.251 128.478C101.2 128.478 102.026 128.148 102.687 127.446C103.347 126.785 103.719 125.959 103.719 125.01C103.719 124.06 103.389 123.234 102.687 122.574C102.026 121.913 101.2 121.541 100.251 121.541Z" fill="#FF8BFF"/>
<path d="M159.709 60.8903C158.759 60.8904 157.933 61.2207 157.273 61.9226C156.612 62.5832 156.24 63.409 156.24 64.3586C156.24 65.3083 156.571 66.134 157.273 66.7947C157.933 67.4553 158.759 67.8269 159.709 67.8269C160.658 67.8269 161.484 67.4966 162.145 66.7947C162.805 66.134 163.177 65.3082 163.177 64.3586C163.177 63.409 162.847 62.5832 162.145 61.9226C161.484 61.2619 160.658 60.8903 159.709 60.8903Z" fill="#FF8BFF"/>
<path d="M159.709 91.1976C158.759 91.1976 157.933 91.5279 157.273 92.2298C156.612 92.8904 156.24 93.7162 156.24 94.6659C156.24 95.6155 156.571 96.4413 157.273 97.1019C157.933 97.7625 158.759 98.1341 159.709 98.1341C160.658 98.1341 161.484 97.8038 162.145 97.1019C162.805 96.4413 163.177 95.6155 163.177 94.6659C163.177 93.7162 162.847 92.8904 162.145 92.2298C161.484 91.5692 160.658 91.1976 159.709 91.1976Z" fill="#FF8BFF"/>
<path d="M159.709 121.541C158.759 121.541 157.933 121.872 157.273 122.574C156.612 123.234 156.24 124.06 156.24 125.01C156.24 125.959 156.571 126.785 157.273 127.446C157.933 128.106 158.759 128.478 159.709 128.478C160.658 128.478 161.484 128.148 162.145 127.446C162.805 126.785 163.177 125.959 163.177 125.01C163.177 124.06 162.847 123.234 162.145 122.574C161.484 121.913 160.658 121.541 159.709 121.541Z" fill="#FF8BFF"/>
<path d="M219.163 0.23587C218.213 0.23587 217.388 0.56618 216.727 1.26809C216.066 1.92871 215.695 2.75449 215.695 3.70413C215.695 4.65377 216.025 5.47955 216.727 6.14017C217.388 6.80079 218.213 7.17239 219.163 7.17239C220.113 7.17239 220.939 6.84208 221.599 6.14017C222.26 5.47955 222.631 4.65377 222.631 3.70413C222.631 2.75449 222.301 1.92871 221.599 1.26809C220.939 0.607469 220.113 0.23587 219.163 0.23587Z" fill="#FF8BFF"/>
<path d="M219.163 30.5397C218.213 30.5397 217.388 30.87 216.727 31.5719C216.066 32.2325 215.695 33.0583 215.695 34.0079C215.695 34.9576 216.025 35.7834 216.727 36.444C217.388 37.1046 218.213 37.4762 219.163 37.4762C220.113 37.4762 220.939 37.1459 221.599 36.444C222.26 35.7833 222.631 34.9576 222.631 34.0079C222.631 33.0583 222.301 32.2325 221.599 31.5719C220.939 30.9113 220.113 30.5397 219.163 30.5397Z" fill="#FF8BFF"/>
<path d="M219.163 60.8903C218.213 60.8904 217.388 61.2207 216.727 61.9226C216.066 62.5832 215.695 63.409 215.695 64.3586C215.695 65.3083 216.025 66.134 216.727 66.7947C217.388 67.4553 218.213 67.8269 219.163 67.8269C220.113 67.8269 220.939 67.4966 221.599 66.7947C222.26 66.134 222.631 65.3082 222.631 64.3586C222.631 63.409 222.301 62.5832 221.599 61.9226C220.939 61.2619 220.113 60.8903 219.163 60.8903Z" fill="#FF8BFF"/>
<path d="M219.163 91.1976C218.213 91.1976 217.388 91.5279 216.727 92.2298C216.066 92.8904 215.695 93.7162 215.695 94.6659C215.695 95.6155 216.025 96.4413 216.727 97.1019C217.388 97.7625 218.213 98.1341 219.163 98.1341C220.113 98.1341 220.939 97.8038 221.599 97.1019C222.26 96.4413 222.631 95.6155 222.631 94.6659C222.631 93.7162 222.301 92.8904 221.599 92.2298C220.939 91.5692 220.113 91.1976 219.163 91.1976Z" fill="#FF8BFF"/>
<path d="M219.163 121.541C218.213 121.541 217.388 121.872 216.727 122.574C216.066 123.234 215.695 124.06 215.695 125.01C215.695 125.959 216.025 126.785 216.727 127.446C217.388 128.106 218.213 128.478 219.163 128.478C220.113 128.478 220.939 128.148 221.599 127.446C222.26 126.785 222.631 125.959 222.631 125.01C222.631 124.06 222.301 123.234 221.599 122.574C220.939 121.913 220.113 121.541 219.163 121.541Z" fill="#FF8BFF"/>
<path d="M278.618 30.5397C277.669 30.5397 276.843 30.87 276.182 31.5719C275.522 32.2325 275.15 33.0583 275.15 34.0079C275.15 34.9576 275.48 35.7834 276.182 36.444C276.843 37.1046 277.669 37.4762 278.618 37.4762C279.568 37.4762 280.394 37.1459 281.054 36.444C281.715 35.7833 282.087 34.9576 282.087 34.0079C282.087 33.0583 281.756 32.2325 281.054 31.5719C280.394 30.9113 279.568 30.5397 278.618 30.5397Z" fill="#FF8BFF"/>
<path d="M278.618 60.8903C277.669 60.8904 276.843 61.2207 276.182 61.9226C275.522 62.5832 275.15 63.409 275.15 64.3586C275.15 65.3083 275.48 66.134 276.182 66.7947C276.843 67.4553 277.669 67.8269 278.618 67.8269C279.568 67.8269 280.394 67.4966 281.054 66.7947C281.715 66.134 282.087 65.3082 282.087 64.3586C282.087 63.409 281.756 62.5832 281.054 61.9226C280.394 61.2619 279.568 60.8903 278.618 60.8903Z" fill="#FF8BFF"/>
<path d="M278.618 91.1976C277.669 91.1976 276.843 91.5279 276.182 92.2298C275.522 92.8904 275.15 93.7162 275.15 94.6658C275.15 95.6155 275.48 96.4413 276.182 97.1019C276.843 97.7625 277.669 98.1341 278.618 98.1341C279.568 98.1341 280.394 97.8038 281.054 97.1019C281.715 96.4413 282.087 95.6155 282.087 94.6658C282.087 93.7162 281.756 92.8904 281.054 92.2298C280.394 91.5692 279.568 91.1976 278.618 91.1976Z" fill="#FF8BFF"/>
<path d="M278.618 121.541C277.669 121.541 276.843 121.872 276.182 122.574C275.522 123.234 275.15 124.06 275.15 125.01C275.15 125.959 275.48 126.785 276.182 127.446C276.843 128.106 277.669 128.478 278.618 128.478C279.568 128.478 280.394 128.148 281.054 127.446C281.715 126.785 282.087 125.959 282.087 125.01C282.087 124.06 281.756 123.234 281.054 122.574C280.394 121.913 279.568 121.541 278.618 121.541Z" fill="#FF8BFF"/>
<path d="M338.076 60.8903C337.127 60.8903 336.301 61.2206 335.64 61.9225C334.98 62.5832 334.608 63.4089 334.608 64.3586C334.608 65.3082 334.938 66.134 335.64 66.7946C336.301 67.4552 337.127 67.8268 338.076 67.8268C339.026 67.8268 339.852 67.4965 340.512 66.7946C341.173 66.134 341.545 65.3082 341.545 64.3586C341.545 63.4089 341.214 62.5832 340.512 61.9225C339.852 61.2619 339.026 60.8903 338.076 60.8903Z" fill="#FF8BFF"/>
<path d="M338.076 91.1976C337.127 91.1976 336.301 91.5279 335.64 92.2298C334.98 92.8904 334.608 93.7162 334.608 94.6658C334.608 95.6155 334.938 96.4413 335.64 97.1019C336.301 97.7625 337.127 98.1341 338.076 98.1341C339.026 98.1341 339.852 97.8038 340.512 97.1019C341.173 96.4413 341.545 95.6155 341.545 94.6658C341.545 93.7162 341.214 92.8904 340.512 92.2298C339.852 91.5692 339.026 91.1976 338.076 91.1976Z" fill="#FF8BFF"/>
<path d="M338.076 121.541C337.127 121.541 336.301 121.872 335.64 122.574C334.98 123.234 334.608 124.06 334.608 125.01C334.608 125.959 334.938 126.785 335.64 127.446C336.301 128.106 337.127 128.478 338.076 128.478C339.026 128.478 339.852 128.148 340.512 127.446C341.173 126.785 341.545 125.959 341.545 125.01C341.545 124.06 341.214 123.234 340.512 122.574C339.852 121.913 339.026 121.541 338.076 121.541Z" fill="#FF8BFF"/>
<path d="M397.532 121.541C396.582 121.541 395.756 121.872 395.096 122.574C394.435 123.234 394.063 124.06 394.063 125.01C394.063 125.959 394.394 126.785 395.096 127.446C395.756 128.106 396.582 128.478 397.532 128.478C398.481 128.478 399.307 128.148 399.968 127.446C400.628 126.785 401 125.959 401 125.01C401 124.06 400.67 123.234 399.968 122.574C399.307 121.913 398.481 121.541 397.532 121.541Z" fill="#FF8BFF"/>
</svg>

<svg xmlns="http://www.w3.org/2000/svg" width="401" height="129" fill="none"><path fill="#FF8BFF" d="M40.795 60.89c-.95 0-1.775.33-2.436 1.033-.66.66-1.032 1.486-1.032 2.436s.33 1.775 1.032 2.436c.66.66 1.487 1.032 2.436 1.032.95 0 1.776-.33 2.436-1.032.661-.661 1.033-1.487 1.033-2.436 0-.95-.33-1.776-1.033-2.436-.66-.661-1.486-1.033-2.436-1.033M40.795 91.198c-.95 0-1.775.33-2.436 1.032-.66.66-1.032 1.486-1.032 2.436s.33 1.775 1.032 2.436c.66.66 1.487 1.032 2.436 1.032.95 0 1.776-.33 2.436-1.032.661-.66 1.033-1.487 1.033-2.436 0-.95-.33-1.775-1.033-2.436-.66-.66-1.486-1.032-2.436-1.032M40.795 121.542c-.95 0-1.775.33-2.436 1.032-.66.66-1.032 1.486-1.032 2.436 0 .949.33 1.775 1.032 2.436.66.66 1.487 1.032 2.436 1.032.95 0 1.776-.33 2.436-1.032.661-.661 1.033-1.487 1.033-2.436 0-.95-.33-1.776-1.033-2.436-.66-.661-1.486-1.032-2.436-1.032M3.468 121.542c-.95 0-1.775.33-2.436 1.032-.66.66-1.032 1.486-1.032 2.436 0 .949.33 1.775 1.032 2.436.66.661 1.487 1.032 2.436 1.032.95 0 1.776-.33 2.436-1.032.66-.661 1.033-1.487 1.033-2.436 0-.95-.33-1.776-1.033-2.436-.66-.661-1.486-1.032-2.436-1.032M100.251.236c-.95 0-1.776.33-2.436 1.032-.66.66-1.032 1.487-1.032 2.436 0 .95.33 1.776 1.032 2.436.66.66 1.486 1.032 2.436 1.032.949 0 1.775-.33 2.436-1.032.66-.66 1.032-1.486 1.032-2.436s-.33-1.775-1.032-2.436c-.661-.66-1.487-1.032-2.436-1.032M100.251 30.54c-.95 0-1.776.33-2.436 1.032-.66.66-1.032 1.486-1.032 2.436s.33 1.775 1.032 2.436c.66.66 1.486 1.032 2.436 1.032.949 0 1.775-.33 2.436-1.032.66-.66 1.032-1.486 1.032-2.436s-.33-1.776-1.032-2.436c-.661-.66-1.487-1.032-2.436-1.032M100.251 60.89c-.95 0-1.776.33-2.436 1.033-.66.66-1.032 1.486-1.032 2.436s.33 1.775 1.032 2.436c.66.66 1.486 1.032 2.436 1.032.949 0 1.775-.33 2.436-1.032.66-.661 1.032-1.487 1.032-2.436 0-.95-.33-1.776-1.032-2.436-.661-.661-1.487-1.033-2.436-1.033M100.251 91.198c-.95 0-1.776.33-2.436 1.032-.66.66-1.032 1.486-1.032 2.436s.33 1.775 1.032 2.436c.66.66 1.486 1.032 2.436 1.032.949 0 1.775-.33 2.436-1.032.66-.66 1.032-1.487 1.032-2.436 0-.95-.33-1.776-1.032-2.436-.661-.66-1.487-1.032-2.436-1.032M100.251 121.541c-.95 0-1.776.331-2.436 1.033-.66.66-1.032 1.486-1.032 2.436 0 .949.33 1.775 1.032 2.436.66.66 1.486 1.032 2.436 1.032.949 0 1.775-.33 2.436-1.032.66-.661 1.032-1.487 1.032-2.436 0-.95-.33-1.776-1.032-2.436-.661-.661-1.487-1.033-2.436-1.033M159.709 60.89c-.95 0-1.776.33-2.436 1.033-.661.66-1.033 1.486-1.033 2.436s.331 1.775 1.033 2.436c.66.66 1.486 1.032 2.436 1.032.949 0 1.775-.33 2.436-1.032.66-.661 1.032-1.487 1.032-2.436 0-.95-.33-1.776-1.032-2.436-.661-.661-1.487-1.033-2.436-1.033M159.709 91.198c-.95 0-1.776.33-2.436 1.032-.661.66-1.033 1.486-1.033 2.436s.331 1.775 1.033 2.436c.66.66 1.486 1.032 2.436 1.032.949 0 1.775-.33 2.436-1.032.66-.66 1.032-1.487 1.032-2.436 0-.95-.33-1.776-1.032-2.436-.661-.66-1.487-1.032-2.436-1.032M159.709 121.541c-.95 0-1.776.331-2.436 1.033-.661.66-1.033 1.486-1.033 2.436 0 .949.331 1.775 1.033 2.436.66.66 1.486 1.032 2.436 1.032.949 0 1.775-.33 2.436-1.032.66-.661 1.032-1.487 1.032-2.436 0-.95-.33-1.776-1.032-2.436-.661-.661-1.487-1.033-2.436-1.033M219.163.236c-.95 0-1.775.33-2.436 1.032-.661.66-1.032 1.486-1.032 2.436s.33 1.776 1.032 2.436c.661.66 1.486 1.032 2.436 1.032s1.776-.33 2.436-1.032c.661-.66 1.032-1.486 1.032-2.436s-.33-1.775-1.032-2.436c-.66-.66-1.486-1.032-2.436-1.032M219.163 30.54c-.95 0-1.775.33-2.436 1.032-.661.66-1.032 1.486-1.032 2.436s.33 1.775 1.032 2.436c.661.66 1.486 1.032 2.436 1.032s1.776-.33 2.436-1.032c.661-.66 1.032-1.486 1.032-2.436s-.33-1.776-1.032-2.436c-.66-.66-1.486-1.032-2.436-1.032M219.163 60.89c-.95 0-1.775.33-2.436 1.033-.661.66-1.032 1.486-1.032 2.436s.33 1.775 1.032 2.436c.661.66 1.486 1.032 2.436 1.032s1.776-.33 2.436-1.032c.661-.661 1.032-1.487 1.032-2.436 0-.95-.33-1.776-1.032-2.436-.66-.661-1.486-1.033-2.436-1.033M219.163 91.198c-.95 0-1.775.33-2.436 1.032-.661.66-1.032 1.486-1.032 2.436s.33 1.775 1.032 2.436c.661.66 1.486 1.032 2.436 1.032s1.776-.33 2.436-1.032c.661-.66 1.032-1.487 1.032-2.436 0-.95-.33-1.776-1.032-2.436-.66-.66-1.486-1.032-2.436-1.032M219.163 121.541c-.95 0-1.775.331-2.436 1.033-.661.66-1.032 1.486-1.032 2.436 0 .949.33 1.775 1.032 2.436.661.66 1.486 1.032 2.436 1.032s1.776-.33 2.436-1.032c.661-.661 1.032-1.487 1.032-2.436 0-.95-.33-1.776-1.032-2.436-.66-.661-1.486-1.033-2.436-1.033M278.618 30.54c-.949 0-1.775.33-2.436 1.032-.66.66-1.032 1.486-1.032 2.436s.33 1.775 1.032 2.436c.661.66 1.487 1.032 2.436 1.032.95 0 1.776-.33 2.436-1.032.661-.66 1.033-1.486 1.033-2.436s-.331-1.776-1.033-2.436c-.66-.66-1.486-1.032-2.436-1.032M278.618 60.89c-.949 0-1.775.33-2.436 1.033-.66.66-1.032 1.486-1.032 2.436s.33 1.775 1.032 2.436c.661.66 1.487 1.032 2.436 1.032.95 0 1.776-.33 2.436-1.032.661-.661 1.033-1.487 1.033-2.436 0-.95-.331-1.776-1.033-2.436-.66-.661-1.486-1.033-2.436-1.033M278.618 91.198c-.949 0-1.775.33-2.436 1.032-.66.66-1.032 1.486-1.032 2.436s.33 1.775 1.032 2.436c.661.66 1.487 1.032 2.436 1.032.95 0 1.776-.33 2.436-1.032.661-.66 1.033-1.487 1.033-2.436 0-.95-.331-1.776-1.033-2.436-.66-.66-1.486-1.032-2.436-1.032M278.618 121.541c-.949 0-1.775.331-2.436 1.033-.66.66-1.032 1.486-1.032 2.436 0 .949.33 1.775 1.032 2.436.661.66 1.487 1.032 2.436 1.032.95 0 1.776-.33 2.436-1.032.661-.661 1.033-1.487 1.033-2.436 0-.95-.331-1.776-1.033-2.436-.66-.661-1.486-1.033-2.436-1.033M338.076 60.89c-.949 0-1.775.33-2.436 1.032-.66.661-1.032 1.487-1.032 2.437s.33 1.775 1.032 2.436c.661.66 1.487 1.032 2.436 1.032.95 0 1.776-.33 2.436-1.032.661-.661 1.033-1.487 1.033-2.436 0-.95-.331-1.776-1.033-2.436-.66-.661-1.486-1.033-2.436-1.033M338.076 91.198c-.949 0-1.775.33-2.436 1.032-.66.66-1.032 1.486-1.032 2.436s.33 1.775 1.032 2.436c.661.66 1.487 1.032 2.436 1.032.95 0 1.776-.33 2.436-1.032.661-.66 1.033-1.487 1.033-2.436 0-.95-.331-1.776-1.033-2.436-.66-.66-1.486-1.032-2.436-1.032M338.076 121.541c-.949 0-1.775.331-2.436 1.033-.66.66-1.032 1.486-1.032 2.436 0 .949.33 1.775 1.032 2.436.661.66 1.487 1.032 2.436 1.032.95 0 1.776-.33 2.436-1.032.661-.661 1.033-1.487 1.033-2.436 0-.95-.331-1.776-1.033-2.436-.66-.661-1.486-1.033-2.436-1.033M397.532 121.541c-.95 0-1.776.331-2.436 1.033-.661.66-1.033 1.486-1.033 2.436 0 .949.331 1.775 1.033 2.436.66.66 1.486 1.032 2.436 1.032.949 0 1.775-.33 2.436-1.032.66-.661 1.032-1.487 1.032-2.436 0-.95-.33-1.776-1.032-2.436-.661-.661-1.487-1.033-2.436-1.033"/></svg>
